X: 33645
T: Rambler, The
R: jig
M: 6/8
K: Amajor
|:ECE A,B,/C/E|FEC E2 e|fec ABc|B/c/dc BAF|
ECE A,B,/C/E|FEC E2 e|fec ABc|1 BAG AGF:|2 BAG AB/c/d||
|:ee/e/e AB/c/e|aAa {e}faf|ee/e/e fec|Bc/B/A Bcd|
ee/e/e AB/c/e|aAa {e}faf|ee/e/e fec|1 BAG AB/c/d:|2 BAG AGF||

